X:1
T:MacMillan's March
L:1/8
M:4/4
I:linebreak $
K:Dmin
V:1 treble 
V:1
 A,2 |: D4 (D2 D>)F | E>D C2 D2 F2 | A2 A>c =B>A G2 | A6 D2 | F2 F2 G2 G2 | F2 F2 E>D C2 | %7
 D>(d d2) A>G F>E |1$ D6 A,2 :|2 D6 C2 ||[K:C] c4 c>A G>E | c>d e>a g2 e2 | c4 c>A G>E | %13
 D2 C2 D2 E>G | c4 c>A G>E |$ c>d e>a g2 e2 | c4 B4 | A>B A>G E>D C2 :| %18
